src/svg/equals-outline.svg

<svg version="1.2" baseProfile="tiny" xmlns="http://www.w3.org/2000/svg" width="24" height="24" viewBox="0 0 24 24"><path d="M18 12h-12c-1.654 0-3-1.346-3-3s1.346-3 3-3h12c1.654 0 3 1.346 3 3s-1.346 3-3 3zm-12-4c-.552 0-1 .449-1 1s.448 1 1 1h12c.552 0 1-.449 1-1s-.448-1-1-1h-12zM18 19h-12c-1.654 0-3-1.346-3-3s1.346-3 3-3h12c1.654 0 3 1.346 3 3s-1.346 3-3 3zm-12-4c-.552 0-1 .449-1 1s.448 1 1 1h12c.552 0 1-.449 1-1s-.448-1-1-1h-12z"/></svg>

<?xml version="1.0" encoding="iso-8859-1"?>
<!-- Generator: Adobe Illustrator 16.2.1, SVG Export Plug-In . SVG Version: 6.00 Build 0)  -->
<svg version="1.2" baseProfile="tiny" id="Layer_1" xmlns="http://www.w3.org/2000/svg" xmlns:xlink="http://www.w3.org/1999/xlink"
	 x="0px" y="0px" width="24px" height="24px" viewBox="0 0 24 24" xml:space="preserve">
<g>
	<g>
		<path d="M18,12H6c-1.654,0-3-1.346-3-3s1.346-3,3-3h12c1.654,0,3,1.346,3,3S19.654,12,18,12z M6,8C5.448,8,5,8.449,5,9
			s0.448,1,1,1h12c0.552,0,1-0.449,1-1s-0.448-1-1-1H6z"/>
	</g>
</g>
<g>
	<g>
		<path d="M18,19H6c-1.654,0-3-1.346-3-3s1.346-3,3-3h12c1.654,0,3,1.346,3,3S19.654,19,18,19z M6,15c-0.552,0-1,0.449-1,1
			s0.448,1,1,1h12c0.552,0,1-0.449,1-1s-0.448-1-1-1H6z"/>
	</g>
</g>
</svg>
